X: 4
T: Blue Bonnets Over The Border
R: jig
M: 6/8
L: 1/8
K: Gmin
|: B,3 B,>CD | B>dc B2G | B<GG G>gg | g>fd d>cd |
B,3 B,>CD | B>dc B2G | B>AG F>GA |1 B>cd c2B :|2 B>cd c2B ||
|: B>df ~f3 | g>fd d>cd | B>df g>ab | B>cd c2B |
B>df ~f3 | g>fd d>cd | B>AG F>GA | B>cd c2B :|


Tune 2402	Setting 15748

